X: 23834
T: Little Red Lark, The
R: jig
M: 6/8
K: Fmajor
C|F2 G FDE|F2 G Afd|cAF (AG)F|(D3 C) C|
FFG FDE|F2 G Afd|cAF (AG)F|(F3 F2) c|
(fe)f dcA|fef (df)d|cAF (AG)F|(D3 C3/2) C/2C|
FFG FDE|F2 G Afd|cAF (AG)>F|(F3 F2) z:|

